X:1
T:Gotha
T:Gotha
T:Justin Heinrich Knecht (1752-1817)
T:Public Domain Courtesy of the Cyber Hymnal™
C:Justin Heinrich Knecht (1752-1817)
Z:Public Domain
Z:Courtesy of the Cyber Hymnal™
%%score ( 1 2 ) ( 3 4 )
L:1/8
Q:1/4=110
M:4/4
K:G
V:1 treble 
V:2 treble 
V:3 bass 
V:4 bass 
V:1
|: [DG]2 [DG]2 [DB]2 [EG]2 | [DB]2 [GB]2 [Ad]2 [GB]2 | [FA]2 [Ad]2 [GB]2 [DG]2 | [DF]2 G2 [DA]4 :| %4
 [FA]2 A2 [GB]2 G2 | [Fc]2 [GB]2 [FA]2 D2 | [FA]2 A2 [GB]2 G2 | [Ad]2 [GB]2 [GB]2 [FA]2 | %8
 [DG]2 D2 [DB]2 [DG]2 | [Gd]2 [Ge]2 [Gd]4 | [DG]2 [D=F]2 [CE]2 [EA]2 | [DG]2 [DF]2 [DG]4 |] %12
V:2
|: x8 | x8 | x8 | x2 (D^C) x4 :| x8 | x8 | x8 | x8 | x8 | x8 | x8 | x8 |] %12
V:3
|: [G,,B,]2 [G,B,]2 [G,B,]2 [C,C]2 | [G,B,]2 [E,E]2 [F,D]2 [G,D]2 | [D,D]2 [F,D]2 [G,D]2 [B,,D]2 | %3
 [D,A,]2 [E,G,]2 [D,F,]4 :| [D,D]2 [F,D]2 [G,D]2 [B,D]2 | [A,D]2 [G,D]2 [D,D]2 [D,F,]2 | %6
 [D,D]2 [F,D]2 [G,D]2 [B,D]2 | [F,D]2 [G,D]2 [^C,E]2 [D,D]2 | [G,B,]2 [F,A,]2 G,2 [G,B,]2 | %9
 [B,,D]2 [C,C]2 [G,B,]4 | [B,,G,]2 [G,,B,]2 [C,G,]2 [A,,C]2 | [D,B,]2 (A,C) [G,B,]4 |] %12
V:4
|: x8 | x8 | x8 | x8 :| x8 | x8 | x8 | x8 | x8 | x8 | x8 | x2 D,2 x4 |] %12

